symbols/web/speaker_group/materialsymbolssharp/speaker_group_wght600_24px.svg

<svg xmlns="http://www.w3.org/2000/svg" height="24" width="24"><path d="M10.175 16.35h8.65V3.2h-8.65ZM7.525 19V.55h13.95V19ZM14.5 7.425q.625 0 1.062-.437Q16 6.55 16 5.925t-.438-1.063q-.437-.437-1.062-.437t-1.062.437Q13 5.3 13 5.925t.438 1.063q.437.437 1.062.437Zm0 8q1.4 0 2.387-1 .988-1 .988-2.4 0-1.425-.988-2.412-.987-.988-2.387-.988t-2.387 1q-.988 1-.988 2.4t.988 2.4q.987 1 2.387 1Zm0-2q-.575 0-.975-.413-.4-.412-.4-.987 0-.6.4-1t.975-.4q.575 0 .975.412.4.413.4.988t-.4.987q-.4.413-.975.413Zm1.675 10.025H3.1V4.55h2.65V20.8h10.425Zm-6-7.1V3.2v13.15Z"/></svg>

<svg xmlns="http://www.w3.org/2000/svg" height="24" width="24"><path d="M10.175 16.35H18.825V3.2H10.175ZM7.525 19V0.55H21.475V19ZM14.5 7.425Q15.125 7.425 15.562 6.988Q16 6.55 16 5.925Q16 5.3 15.562 4.862Q15.125 4.425 14.5 4.425Q13.875 4.425 13.438 4.862Q13 5.3 13 5.925Q13 6.55 13.438 6.988Q13.875 7.425 14.5 7.425ZM14.5 15.425Q15.9 15.425 16.887 14.425Q17.875 13.425 17.875 12.025Q17.875 10.6 16.887 9.613Q15.9 8.625 14.5 8.625Q13.1 8.625 12.113 9.625Q11.125 10.625 11.125 12.025Q11.125 13.425 12.113 14.425Q13.1 15.425 14.5 15.425ZM14.5 13.425Q13.925 13.425 13.525 13.012Q13.125 12.6 13.125 12.025Q13.125 11.425 13.525 11.025Q13.925 10.625 14.5 10.625Q15.075 10.625 15.475 11.037Q15.875 11.45 15.875 12.025Q15.875 12.6 15.475 13.012Q15.075 13.425 14.5 13.425ZM16.175 23.45H3.1V4.55H5.75V20.8H16.175ZM10.175 16.35V3.2V16.35Z"/></svg>
